icons/op-file-edit-16.svg

<svg width="16" height="16" viewBox="0 0 16 16" fill="none" xmlns="http://www.w3.org/2000/svg">
<path d="M1.75 1.5C1.61193 1.5 1.5 1.61193 1.5 1.75V13.25C1.5 13.3881 1.61193 13.5 1.75 13.5H5.75C6.16421 13.5 6.5 13.8358 6.5 14.25C6.5 14.6642 6.16421 15 5.75 15H1.75C0.783502 15 0 14.2165 0 13.25V1.75C0 0.783502 0.783501 0 1.75 0H8.33579C8.79991 0 9.24503 0.184374 9.57322 0.512563L12.4874 3.42678C12.8156 3.75497 13 4.20008 13 4.66421V6.70711C13 7.12132 12.6642 7.45711 12.25 7.45711C11.8358 7.45711 11.5 7.12132 11.5 6.70711V4.66421C11.5 4.59791 11.4737 4.53432 11.4268 4.48744L8.51256 1.57322C8.46568 1.52634 8.40209 1.5 8.33579 1.5H1.75Z" fill="#1F2328"/>
<path fill-rule="evenodd" clip-rule="evenodd" d="M12.9758 9.25472C13.3154 8.91509 13.8661 8.91509 14.2057 9.25472L14.7453 9.79431C15.0849 10.1339 15.0849 10.6846 14.7453 11.0242L10.4667 15.3028C10.3622 15.4073 10.2328 15.4835 10.0906 15.5241L8.47512 15.9856C8.34497 16.0229 8.20489 15.9865 8.10918 15.8908C8.01346 15.7951 7.97716 15.6551 8.01435 15.5249L8.47593 13.9094C8.51653 13.7673 8.59268 13.6378 8.69719 13.5333L12.9758 9.25472ZM13.6786 9.78183C13.6301 9.73331 13.5514 9.73331 13.5029 9.78183L12.8754 10.4093L13.5908 11.1245L14.2182 10.4971C14.2667 10.4486 14.2667 10.3699 14.2182 10.3214L13.6786 9.78183Z" fill="#24292F"/>
</svg>

<svg xmlns="http://www.w3.org/2000/svg" width="16" height="16" viewBox="0 0 16 16"><path d="M1.75 1.5a.25.25 0 0 0-.25.25v11.5c0 .138.112.25.25.25h4a.75.75 0 0 1 0 1.5h-4A1.75 1.75 0 0 1 0 13.25V1.75C0 .784.784 0 1.75 0h6.586c.464 0 .909.184 1.237.513l2.914 2.914c.329.328.513.773.513 1.237v2.043a.75.75 0 0 1-1.5 0V4.664a.25.25 0 0 0-.073-.177L8.513 1.573a.25.25 0 0 0-.177-.073H1.75Zm11.226 7.755a.87.87 0 0 1 1.23 0l.539.539a.87.87 0 0 1 0 1.23l-4.278 4.279a.882.882 0 0 1-.376.221l-1.616.462a.373.373 0 0 1-.461-.461l.462-1.616a.882.882 0 0 1 .221-.376Zm.703.527a.124.124 0 0 0-.176 0l-.628.627.716.716.627-.628a.124.124 0 0 0 0-.176Z"/></svg>
